rospo-light/small/devices/printer-network-symbolic.svg

<?xml version="1.0" encoding="UTF-8" standalone="no"?>
<svg
   xmlns:dc="http://purl.org/dc/elements/1.1/"
   xmlns:cc="http://creativecommons.org/ns#"
   xmlns:rdf="http://www.w3.org/1999/02/22-rdf-syntax-ns#"
   xmlns:svg="http://www.w3.org/2000/svg"
   xmlns="http://www.w3.org/2000/svg"
   xmlns:sodipodi="http://sodipodi.sourceforge.net/DTD/sodipodi-0.dtd"
   xmlns:inkscape="http://www.inkscape.org/namespaces/inkscape"
   width="22"
   height="22"
   version="1.1"
   id="svg8"
   sodipodi:docname="printer-network-symbolic.svg"
   inkscape:version="0.92.1 r">
  <metadata
     id="metadata14">
    <rdf:RDF>
      <cc:Work
         rdf:about="">
        <dc:format>image/svg+xml</dc:format>
        <dc:type
           rdf:resource="http://purl.org/dc/dcmitype/StillImage" />
      </cc:Work>
    </rdf:RDF>
  </metadata>
  <defs
     id="defs12" />
  <sodipodi:namedview
     pagecolor="#ffffff"
     bordercolor="#666666"
     borderopacity="1"
     objecttolerance="10"
     gridtolerance="10"
     guidetolerance="10"
     inkscape:pageopacity="0"
     inkscape:pageshadow="2"
     inkscape:window-width="749"
     inkscape:window-height="480"
     id="namedview10"
     showgrid="false"
     inkscape:zoom="10.727273"
     inkscape:cx="11"
     inkscape:cy="11"
     inkscape:window-x="0"
     inkscape:window-y="0"
     inkscape:window-maximized="0"
     inkscape:current-layer="svg8" />
  <g
     id="g4494"
     transform="matrix(0.93333333,0,0,0.93333333,3.5333334,3.0666667)">
    <path
       id="path2"
       d="m 1,10 v 3 c 0,0 0,1 1,1 h 5 v 2 h 2 v -2 h 5 c 1,0 1,-1 1,-1 v -3 z m 2,1 h 1 v 1 H 3 Z"
       style="fill:#5c616c"
       inkscape:connector-curvature="0" />
    <path
       id="path4"
       d="M 2,5 C 1.5,5 1,5.5 1,6 V 9 H 15 V 6 C 15,5.5 14.5,5 14,5 Z"
       style="fill:#5c616c"
       inkscape:connector-curvature="0" />
    <path
       id="path6"
       d="m 4,1 v 3 h 8 V 1 Z"
       style="fill:#5c616c"
       inkscape:connector-curvature="0" />
  </g>
</svg>

<svg xmlns="http://www.w3.org/2000/svg" width="16" height="16" version="1.1">
 <path style="fill:#5c616c" d="M 1,10 V 13 C 1,13 1,14 2,14 H 7 V 16 H 9 V 14 H 14 C 15,14 15,13 15,13 V 10 Z M 3,11 H 4 V 12 H 3 Z"/>
 <path style="fill:#5c616c" d="M 2,5 C 1.5,5 1,5.5 1,6 V 9 H 15 V 6 C 15,5.5 14.5,5 14,5 Z"/>
 <path style="fill:#5c616c" d="M 4,1 V 4 H 12 V 1 Z"/>
</svg>
